public/assets/images/imagesOutline-inverse.svg

<svg width="25" height="24" fill="none" xmlns="http://www.w3.org/2000/svg"><path d="M5.75 21a1.99 1.99 0 01-1.425-.575A1.99 1.99 0 013.75 19V5c0-.55.192-1.017.575-1.4.4-.4.875-.6 1.425-.6h14c.55 0 1.017.2 1.4.6.4.383.6.85.6 1.4v14c0 .55-.2 1.025-.6 1.425-.383.383-.85.575-1.4.575h-14zm0-2h14V5h-14v14zm1-2h12L15 12l-3 4-2.25-3-3 4zm-1 2V5v14z" fill="var(--ion-color-inverse-primary)"/></svg>

<svg width="25" height="24" viewBox="0 0 25 24" fill="none" xmlns="http://www.w3.org/2000/svg">
<path d="M5.75 21C5.2 21 4.725 20.8083 4.325 20.425C3.94167 20.025 3.75 19.55 3.75 19V5C3.75 4.45 3.94167 3.98333 4.325 3.6C4.725 3.2 5.2 3 5.75 3H19.75C20.3 3 20.7667 3.2 21.15 3.6C21.55 3.98333 21.75 4.45 21.75 5V19C21.75 19.55 21.55 20.025 21.15 20.425C20.7667 20.8083 20.3 21 19.75 21H5.75ZM5.75 19H19.75V5H5.75V19ZM6.75 17H18.75L15 12L12 16L9.75 13L6.75 17ZM5.75 19V5V19Z" fill="var(--ion-color-inverse-primary)"/>
</svg>
